X:7
T:Four Quakers
%%VWML:RutherfordSelect-4785-p7-0
F:http://www.vwml.org/record/RutherfordSelect/4785/p7
Z:Transcribed by David Jacobs February 2016
S:12 Selected Country Dances 1772, John Rutherford
L:1/8
M:6/8
K:G
V:1     clef=treble
V:2     clef=bass
V:1 
B2cd2d|gfed2B|c2aB2g|AFD!trill!D3|B2c def|gfe def|gbe fa^c|.d2.d2:|
d2Be2d|c2Ad2c|B2Gc2B|AFDD3|BGB cAc|dBde2!trill!f|gfe dcB|AGFG3:|
V:2
G,3G,3|"6"B,3G,3|"6"A,3G,3|D,3"6"F,3|G,3G,3|G,3"6"F,3|G,3"6/4"B,2A,,|.D,2.D,2:|
"6"B,2G,C2B,|"6"A,2F,C2A,|G,3C,2^C,|D,3"6"F,3|G,3"7"D,3|"6"B,,3C,2"6"A,,|"6"B,,2C,"6/4"D,3|"5/4"D,,3G,,3:|
W:The first and Second Cu. foot it and turn back to back.|
W:Turn about right hands across :|
W:The third Cu. cross hands behind each other lead off quite round :|
W:The first Man leads his Partner behind the Second Man right and left:|:


